packages/core/assets/Icons/wifi.svg

<svg viewBox="0 0 20 20" fill="none" xmlns="http://www.w3.org/2000/svg">
<path d="M9.99979 17.5C9.41646 17.5 8.92341 17.2986 8.52063 16.8958C8.11785 16.493 7.91646 16 7.91646 15.4166C7.91646 14.8333 8.11785 14.3403 8.52063 13.9375C8.92341 13.5347 9.41646 13.3333 9.99979 13.3333C10.5831 13.3333 11.0762 13.5347 11.479 13.9375C11.8817 14.3403 12.0831 14.8333 12.0831 15.4166C12.0831 16 11.8817 16.493 11.479 16.8958C11.0762 17.2986 10.5831 17.5 9.99979 17.5ZM9.99979 8.33331C11.0415 8.33331 12.031 8.49998 12.9685 8.83331C13.906 9.16665 14.7567 9.62498 15.5206 10.2083C15.7984 10.4166 15.9408 10.691 15.9477 11.0312C15.9547 11.3715 15.8331 11.6666 15.5831 11.9166C15.347 12.1528 15.0554 12.2743 14.7081 12.2812C14.3609 12.2882 14.0484 12.1944 13.7706 12C13.2429 11.6389 12.6595 11.3541 12.0206 11.1458C11.3817 10.9375 10.7081 10.8333 9.99979 10.8333C9.29146 10.8333 8.61785 10.9375 7.97896 11.1458C7.34007 11.3541 6.75674 11.6389 6.22896 12C5.95118 12.1944 5.63868 12.2847 5.29146 12.2708C4.94424 12.2569 4.65257 12.1319 4.41646 11.8958C4.18035 11.6458 4.06229 11.3507 4.06229 11.0104C4.06229 10.6701 4.20118 10.3958 4.47896 10.1875C5.24285 9.60415 6.09354 9.14928 7.03104 8.8229C7.96854 8.49651 8.95813 8.33331 9.99979 8.33331ZM9.99979 3.33331C11.7359 3.33331 13.3713 3.61804 14.906 4.18748C16.4408 4.75692 17.8192 5.56248 19.0415 6.60415C19.3192 6.84026 19.4651 7.13192 19.479 7.47915C19.4928 7.82637 19.3748 8.12498 19.1248 8.37498C18.8887 8.61109 18.597 8.73262 18.2498 8.73956C17.9026 8.74651 17.5901 8.63887 17.3123 8.41665C16.3123 7.5972 15.1908 6.96179 13.9477 6.5104C12.7047 6.05901 11.3887 5.83331 9.99979 5.83331C8.61091 5.83331 7.29493 6.05901 6.05188 6.5104C4.80882 6.96179 3.68729 7.5972 2.68729 8.41665C2.40952 8.63887 2.09702 8.74651 1.74979 8.73956C1.40257 8.73262 1.11091 8.61109 0.874794 8.37498C0.624794 8.12498 0.506739 7.82637 0.520628 7.47915C0.534517 7.13192 0.68035 6.84026 0.958128 6.60415C2.18035 5.56248 3.55882 4.75692 5.09354 4.18748C6.62827 3.61804 8.26368 3.33331 9.99979 3.33331Z" fill="currentColor"/>
</svg>

<svg xmlns="http://www.w3.org/2000/svg" width="20" height="20" fill="none" viewBox="0 0 20 20">
  <path fill="#201F1F" d="M10 17.5a2.012 2.012 0 0 1-1.48-.604 2.012 2.012 0 0 1-.604-1.48c0-.583.202-1.076.605-1.479A2.012 2.012 0 0 1 10 13.334c.583 0 1.076.202 1.479.604.403.403.604.896.604 1.48 0 .583-.201 1.076-.604 1.479a2.012 2.012 0 0 1-1.48.604Zm0-9.167a8.81 8.81 0 0 1 2.969.5 9.32 9.32 0 0 1 2.552 1.375c.277.209.42.483.427.823.007.34-.115.636-.365.886a1.225 1.225 0 0 1-.875.364 1.54 1.54 0 0 1-.937-.281 6.826 6.826 0 0 0-1.75-.854A6.478 6.478 0 0 0 10 10.833c-.709 0-1.382.104-2.021.313a6.828 6.828 0 0 0-1.75.854c-.278.194-.59.285-.938.27a1.264 1.264 0 0 1-.875-.374 1.247 1.247 0 0 1-.354-.886.98.98 0 0 1 .417-.822 9.107 9.107 0 0 1 2.552-1.365A8.964 8.964 0 0 1 10 8.333Zm0-5c1.736 0 3.371.285 4.906.854a13.632 13.632 0 0 1 4.135 2.417c.278.236.424.528.438.875.014.347-.104.646-.354.896a1.225 1.225 0 0 1-.875.365 1.417 1.417 0 0 1-.938-.323 11.41 11.41 0 0 0-3.364-1.907A11.476 11.476 0 0 0 10 5.833c-1.39 0-2.705.226-3.948.677a11.41 11.41 0 0 0-3.365 1.907c-.277.222-.59.33-.937.323a1.225 1.225 0 0 1-.875-.365 1.153 1.153 0 0 1-.354-.896 1.17 1.17 0 0 1 .437-.875 13.632 13.632 0 0 1 4.136-2.417c1.534-.569 3.17-.854 4.906-.854Z"/>
</svg>
